X: 7
T: Polorum Regina
B: Llibre Vermeil
F:http://www.cervantesvirtual.com/s3/BVMC_OBRAS/ff6/fe3/e28/2b1/11d/fac/c70/021/85c/e60/64/mimes/imagenes/ff6fe3e2-82b1-11df-acc7-002185ce6064_315.jpg
Z:Ali Corbin <ali.corbin:gmail.com>
N: 
M: 3/4
L: 1/4
Q: 1/4=180
K: C
V:1
%Staff 1
%%MIDI program 74
  C2 C | E2  F | G2  G | G2 A |(Bc2)|(c/B/A/A/B/G/) | G3 |
w:Po-lo-rum re-  gi-na   om-ni-um*    no-*****       stra.
   F2   E | F (AG) | F2  E | D2 C | E3|(GED)| C3 ||
w:Stel-la  ma- tu-*  ti-na,  de-le sce-le-**ra.
%
  F2  E | F (AA) | F2  E | D2 C | E3|(GED)| C3 ||
w:An-te  par-tum* vir-go   De-o   gra-vi-**da
  F2  E | F (AA) | F2  E | D2 C | E3|(GED)| C3 ||
w:An-te  par-tum* vir-go   De-o   gra-vi-**da
  C2   C | E2  F | G2  G | G2  A |(Bc2)|(c/B/A/A/B/G/)|G3|
w:Sem-per per-man-si-sti   in-vi-  o-*   la-*****      ta.
   F2   E | F (AG) | F2  E | D2 C | E3|(GED)| C3 ||
w:Stel-la  ma- tu-*  ti-na,  de-le sce- le-**ra.
%
W:Polorum regina omnium nostra.
W:Stella matutina, dele scelera.
W:
W:Ante partum virgo Deo gravida
W:Ante partum virgo Deo gravida
W:Semper permansisti inviolata.
W:Stella matutina, dele scelera.
W:
W:Et in partu virgo Deo fecunda
W:Et in partu virgo Deo fecunda
W:Semper permansisti inviolata.
W:Stella matutina, dele scelera.
W:
W:Et post partum virgo mater enixa
W:Et post partum virgo mater enixa
W:Semper permansisti inviolata.
W:Stella matutina, dele scelera.

